layout/admin/dist/assets/admin/img/icons/edit.svg

<svg width="20" height="20" viewBox="0 0 20 20" fill="none" xmlns="http://www.w3.org/2000/svg">
<path d="M2.46084 4.00457H0V20H12.3042V17.5392H2.46084V4.00457ZM19.5636 2.0359L17.9641 0.436355C17.4719 -0.0558121 16.6106 -0.178854 15.9954 0.313313L14.765 1.54373H3.69125V16.3087H14.765V8.92624L19.6867 4.00457C20.1789 3.38936 20.0558 2.52807 19.5636 2.0359ZM12.5503 9.4184L9.47422 10.5258L10.5816 7.44974L15.9954 2.0359L17.9641 4.00457L12.5503 9.4184Z" fill="white"/>
</svg>

<svg width="20" height="20" viewBox="0 0 20 20" fill="none" xmlns="http://www.w3.org/2000/svg"><path d="M2.46 4.005H0V20h12.304v-2.46H2.461V4.004zm17.104-1.97l-1.6-1.599c-.492-.492-1.353-.615-1.969-.123l-1.23 1.23H3.691V16.31h11.074V8.926l4.922-4.921c.492-.616.369-1.477-.123-1.97zM12.55 9.419l-3.076 1.108 1.108-3.076 5.413-5.414 1.97 1.969-5.415 5.413z" fill="#fff"/></svg>
